coffe/RTP.svg

<svg width="50" height="50" viewBox="0 0 50 50" fill="none" xmlns="http://www.w3.org/2000/svg">
<path d="M1 49H49C42.6697 42.6577 25 34.5856 25 38.1892C25 46.4706 16.0833 47.3227 7.95303 48.0996L7.95287 48.0996C7.79769 48.1145 7.64279 48.1293 7.48824 48.1441C5.16991 48.3665 2.93124 48.5943 1 49Z" fill="#E3C4AD"/>
<path d="M49 6C49 3.23858 46.7614 1 44 1H25L37 25H44C46.7614 25 49 22.7614 49 20V6Z" fill="#A07250"/>
<path fill-rule="evenodd" clip-rule="evenodd" d="M25 1L1 49C2.93124 48.5943 5.16991 48.3665 7.48824 48.1441C7.64279 48.1293 7.79769 48.1145 7.95287 48.0996L7.95303 48.0996C16.0833 47.3227 25 46.4706 25 38.1892C25 34.5856 42.6697 42.6577 49 49L37 25L25 1ZM25 28.6364C27.0083 28.6364 28.6364 27.0083 28.6364 25C28.6364 22.9917 27.0083 21.3636 25 21.3636C22.9917 21.3636 21.3636 22.9917 21.3636 25C21.3636 27.0083 22.9917 28.6364 25 28.6364Z" fill="#DCA780"/>
<path d="M25 1L1 49M25 1H44C46.7614 1 49 3.23858 49 6V20C49 22.7614 46.7614 25 44 25H37M25 1L37 25M49 49H1M49 49C42.6697 42.6577 25 34.5856 25 38.1892C25 46.4706 16.0833 47.3227 7.95303 48.0996L7.95287 48.0996C7.79769 48.1145 7.64279 48.1293 7.48824 48.1441C5.16991 48.3665 2.93124 48.5943 1 49M49 49L37 25M28.6364 25C28.6364 27.0083 27.0083 28.6364 25 28.6364C22.9917 28.6364 21.3636 27.0083 21.3636 25C21.3636 22.9917 22.9917 21.3636 25 21.3636C27.0083 21.3636 28.6364 22.9917 28.6364 25Z" stroke="#664100" stroke-miterlimit="1"/>
</svg>

<svg xmlns="http://www.w3.org/2000/svg" width="50" height="50" fill="none"><path fill="#E3C4AD" d="M1 49h48c-6.3-6.3-24-14.4-24-10.8 0 8.3-9 9.1-17 9.9h-.5c-2.3.3-4.6.5-6.5.9Z"/><path fill="#A07250" d="M49 6a5 5 0 0 0-5-5H25l12 24h7a5 5 0 0 0 5-5V6Z"/><path fill="#DCA780" fill-rule="evenodd" d="M25 1 1 49c2-.4 4.2-.6 6.5-.9H8c8-.8 17-1.6 17-10 0-3.5 17.7 4.6 24 10.9L37 25 25 1Zm0 27.6a3.6 3.6 0 1 0 0-7.2 3.6 3.6 0 0 0 0 7.2Z" clip-rule="evenodd"/><path stroke="#664100" stroke-miterlimit="1" d="M25 1 1 49M25 1h19a5 5 0 0 1 5 5v14a5 5 0 0 1-5 5h-7M25 1l12 24m12 24H1m48 0c-6.3-6.3-24-14.4-24-10.8 0 8.3-9 9.1-17 9.9h-.5c-2.3.3-4.6.5-6.5.9m48 0L37 25m-8.4 0a3.6 3.6 0 1 1-7.2 0 3.6 3.6 0 0 1 7.2 0Z"/></svg>
